X:1
T:Miren que flor
T:José de Torres y Martinez Bravo [1665-1738]
T:From a printed edition in Guatemala Cathedral, no 6-108
T:Miren que flor
C:José de Torres y Martinez Bravo [1665-1738]
Z:From a printed edition in Guatemala
Z:Cathedral, no 6-108
%%score [ 1 2 3 ]
L:1/8
M:3/4
K:G
V:1 treble nm="[Soprano]" snm="S."
V:2 treble nm="[Alto]" snm="A."
V:3 treble-8 transpose=-12 nm="[Tenor]" snm="T."
V:1
"^Estribillo a 3" d3 c B2 | A2 G4 | F3 F G2 | A2 B4 | A3 B A2 | G2 F4 | E3 F G2 | G2 F4 | %8
w: Mi- ren que|flor las|gra- cias nos|de- po-|si- ta, nos|de- po-|si- ta, nos|de- po-|
w: ||||||||
w: ||||||||
w: ||||||||
 E3 (D E2) | z6 | d3 c B2 | A2 G4 | F3 F G2 | A2 B4 | A3 B A2 | G2 F4 | E3 F G2 | G2 F4 | %18
w: si- ta, _||Mi- ren que|flor las|gra- cias nos|de- po-|si- ta, nos|de- po-|si- ta, nos|de- po-|
w: ||||||||||
w: ||||||||||
w: ||||||||||
 E3 (D E2) | z6 | z2 d4 | z2 ^c4 | z2 B4 | z2 ^A4 | z2 B3 c | A2 A3 B | G2 G3 A | F2 F4 | z2 A4 | %29
w: si- ta, _||que,|que,|que,|que,|que de\_a-|mor es re-|cre- o,\_y de-|li- cia,|que|
w: |||||||||||
w: |||||||||||
w: |||||||||||
 z2 G3 G | G4 F2- | FF E4 | F6 | z6 | d4 ^c2 | B2 ^A4 | B6 | z6 | d4 ^c2 | B2 ^A4 | B6 | z6 | %42
w: es re-|cre- o\_y|* de- li-|cia.||Es- ta\_es|la gra-|cia,||es- ta\_es|Ma- ri-|a,||
w: |||||||||||||
w: |||||||||||||
w: |||||||||||||
 B3 c d2 | (d2 ^c4) | d12 |:"^Coplas a 3" z2 A4 | B3 c B2 | A2 c4 | B3 (A B2) | z2 z A c2 | %50
w: es- ta\_es Ma-|ri- *|a.|De-|li- cia de\_un|dios a-|man- te, _|su pu-|
w: |||Fra-|gran- cias ex-|ha- la\_her-|mo- sa, _|flor, que|
w: |||No\_al|cier- zo co-|mún su-|je- ta, _|que\_in- fiel|
w: |||O-|tro cie- lo\_ha-|cer bien|pu- do, _|la\_om- ni-|
 (B3 c) B2 | A2 G4 | F4 F2 | z2 ^d4 | e3 f e2 | e2 ^d4 | e4 e2 | z6 | z6 | z6 | z6 | z2 z B B2 | %62
w: re- * za|fiel se|mi- ra,|pen-|sil que glo-|ria del|cie- lo,|||||por re-|
w: cer- * can|las es-|pi- nas,|que|co- mo\_a rei-|na del|pra- do,|||||de guar-|
w: las _ flo-|res mar-|chi- ca,|pa-|re- cien- do|co- mo|to- das,|||||co- mo|
w: po- * ten-|cia di-|vi- na,|pe-|ro no\_o- tra|flor co-|mo\_es- ta,|||||com- ple-|
 c3 B (A2 | c2) ^G4 | A4 d2 | d2 ^c4 | d3 e d2 | z6 | d4 ^c2 | B2 ^A4 | B6 | z6 | d4 ^c2 | B2 A4 | %74
w: cre- o\_a- mor|_ fa-|bri- ca,|a- mor|fa- bri- ca.||Es- ta\_es|la gra-|cia,||es- ta\_es|Ma- ri-|
w: da ha- ce|que la|sir- van,|que la|sir- van. _||||||||
w: nin- gu- na|_ se\_ad-|mi- ra,|se ad-|mi- ra. _||||||||
w: men- to de|_ las|di- chas,|de las|di- chas. _||||||||
 B6 | z6 | B3 ^c d2 | (d2 ^c4) | d12 :| %79
w: a,||es- ta\_es Ma-|ri- *|a.|
w: |||||
w: |||||
w: |||||
V:2
 z6 | z6 | z6 | z6 | A3 G F2 | E2 D4 | ^C3 D E2 | ^C2 D4 | ^C3 (B, C2) | z6 | z6 | z6 | z6 | z6 | %14
w: ||||Mi- ren que|flor las|gra- cias nos|de- po-|si- ta, _||||||
w: ||||||||||||||
w: ||||||||||||||
w: ||||||||||||||
 A3 G F2 | E2 D4 | ^C3 D E2 | ^C2 D4 | ^C3 (B, C2) | z6 | z2 F3 G | E2 E3 F | D2 D3 E | ^C2 C4 | %24
w: Mi- ren que|flor las|gra- cias nos|de- po-|si- ta, _||que de\_a-|mor es re-|cre- o,\_y de-|li- cia,|
w: ||||||||||
w: ||||||||||
w: ||||||||||
 B,2 G4 | z2 F4 | z2 E4 | z2 ^D4 | E4 z2 | D2 D3 E | ^C4 D2- | DD ^C4 | D6 | z6 | F4 E2 | D2 ^C4 | %36
w: que, que,|que,|que,|que,|que,|que es re-|cre- o\_y|* de- li-|cia.||Es- ta\_es|la gra-|
w: ||||||||||||
w: ||||||||||||
w: ||||||||||||
 D6 | z6 | F4 A2 | G2 F4 | G6 | z6 | D3 E F2 | E6 | F12 |: z2 F4 | G3 A G2 | G2 F4 | G4 G2 | %49
w: cia,||es- ta\_es|Ma- ri-|a,||es- ta\_es Ma-|ri-|a.|De-|li- cia de\_un|dios a-|man- te,|
w: |||||||||Fra-|gran- cias ex-|ha- la\_her-|mo- sa,|
w: |||||||||No\_al|cier- zo co-|mún su-|je- ta,|
w: |||||||||O-|tro cie- lo\_ha-|cer bien|pu- do,|
 z2 z F F2 | (G3 A) G2 | F2 E4 | ^D3 (C D2) | z2 F4 | G3 A G2 | F2 A4 | G3 (F G2) | z2 z F F2 | %58
w: su pu-|re- * za|fiel se|mi- ra, _|pen-|sil que glo-|ria del|cie- lo, _|por re-|
w: flor, que|cer- * can|las es-|pi- nas, _|que|co- mo\_a rei-|na del|pra- do, _|de guar-|
w: que\_in- fiel|las _ flo-|res mar-|chi- ca, _|pa-|re- cien- do|co- mo|to- das, _|co- mo|
w: la\_om- ni-|po- * ten-|cia di-|vi- na, _|pe-|ro no\_o- tra|flor co-|mo\_es- ta, _|com- ple-|
 G3 F E2 | G2 ^D4 | E6- | E6 | E6 | z2 z E D2 | ^C4 F2 | E2 G4 | F3 (G F2) | z6 | F4 E2 | D2 ^C4 | %70
w: cre- o\_a- mor|_ fa-|bri-||ca,|por re-|cre- o\_a-|mor fa-|bri- ca. _||Es- ta\_es|la gra-|
w: da ha- ce|que la|sir-||van,|de guar-|da\_ha- ce|que la|sir- van. _||||
w: nin- gu- na|se ad-|mi-||ra,|co- mo|nin- gu-|na se\_ad-|mi- ra. _||||
w: men- * to|de las|di-||chas,|com- ple-|men- to|de las|di- chas. _||||
 D6 | z6 | F4 A2 | G2 F4 | G6 | z6 | G3 G F2 | (E2 G4) | F12 :| %79
w: cia,||es- ta\_es|Ma- ri-|a,||es- ta\_es Ma-|ri- *|a.|
w: |||||||||
w: |||||||||
w: |||||||||
V:3
 z6 | z6 | d3 c B2 | A2 G4 | F3 E F2 | G2 G4 | A3 A A2 | A2 D4 | A4 A2 | z6 | z6 | z6 | d3 c B2 | %13
w: ||Mi- ren que|flor las|gra- cias nos|de- po-|si- ta, nos|de- po-|si- ta,||||Mi- ren que|
w: |||||||||||||
w: |||||||||||||
w: |||||||||||||
 A2 G4 | F3 E F2 | G2 G4 | A3 A A2 | A2 D4 | A4 A2 | z6 | z2 d4 | z2 A3 A | B6 | F6 | G6 | %25
w: flor las|gra- cias nos|de- po-|si- ta, nos|de- po-|si- ta,||que,|que de\_a-|mor,|que,|que,|
w: ||||||||||||
w: ||||||||||||
w: ||||||||||||
 z2 d3 d | e2 E4 | B6 | z2 c3 d | B2 B3 c | A4 D2- | DD A4 | D6 | z6 | d4 A2 | B2 F4 | B6 | z6 | %38
w: es re-|cre- o,|que,|que de\_a-|mor es re-|cre- o\_y|* de- li-|cia.||Es- ta\_es|la gra-|cia,||
w: |||||||||||||
w: |||||||||||||
w: |||||||||||||
 B4 F2 | G2 D4 | G6 | z6 | G3 G D2 | A6 | D12 |: z2 d4 | G3 F G2 | D2 D4 | G4 G2 | z2 z D D2 | %50
w: es- ta\_es|Ma- ri-|a,||es- ta\_es Ma-|ri-|a.|De-|li- cia de\_un|dios a-|man- te,|su pu-|
w: |||||||Fra-|gran- cias ex-|ha- la\_her-|mo- sa,|flor, que|
w: |||||||No\_al|cier- zo co-|mún su-|je- ta,|que\_in- fiel|
w: |||||||O-|tro cie- lo\_ha-|cer bien|pu- do,|la\_om- ni-|
 (G3 F) G2 | D2 E4 | B4 B2 | z2 B4 | e3 ^d e2 | B2 B4 | E4 E2 | z6 | z6 | z2 z B B2 | c3 B A2 | %61
w: re- * za|fiel se|mi- ra,|pen-|sil que glo-|ria del|cie- lo,|||por re-|cre- cre- o\_a-|
w: cer- * can|las es-|pi- nas,|que|co- mo\_a rei-|na del|pra- do,|||de guar-|da ha- ce|
w: las _ flo-|res mar-|chi- ca,|pa-|re- cien- do|co- mo|to- das,|||co- mo|nin- gu- na|
w: po- * ten-|cia di-|vi- na,|pe-|ro no\_o- tra|flor co-|mo\_es- ta,|||com- ple-|men- * to|
 c2 ^G4 | A4 A2 | z2 z E E2 | F3 E D2 | A2 A4 | D4 D2 | z6 | d4 A2 | B2 F4 | B6 | z6 | B4 F2 | %73
w: mor fa-|bri- ca,|por re-|cre- o a-|mor fa-|bri- ca.||Es- ta\_es|la gra-|cia,||es- ta\_es|
w: que la|sir- van,|de guar-|da ha- ce|que la|sir- van.|||||||
w: se ad-|mi- ra,|co- mo|nin- gu- na|se ad-|mi- ra.|||||||
w: de las|di- chas,|com- ple-|men- * to|de las|di- chas.|||||||
 G2 D4 | G6 | z6 | G3 G D2 | A6 | D12 :| %79
w: Ma- ri-|a,||es- ta\_es Ma-|ri-|a.|
w: ||||||
w: ||||||
w: ||||||

